X: 42699
T: Whistler Of Rosslea, The
R: reel
M: 4/4
K: Eminor
|:EFGA B2AF|BFAF GE E2|DEFG A2GA|BcAB GAFG|
EFGE FGAF|B^cdB edBA|GABG AGFA|GEFD E3B:|
|:e2Be GeBe|e2fe edB^c|d2Ad FdAd|d^cBA GFDF|
Eeed edBA|GAB^c d3e|edBA GABG|AFDF E4:|

